X: 787
T: Aisling Gheal
R: waltz
M: 3/4
K: Dmajor
D|:F2 G ~B2 A A3/2d3/2- H!breath!d3|d>ef ~e2 d H!breath!d3 ~d2 c|A3{/E} H!breath!F3{/F} ~A3 F3{/F} ~G2 F|
[1 E2 D HD3- !breath!DD>D:|2 E2 D HD3- !breath!DA>A||
c2 d e2 f ~g3 !breath!f zd|~e2 d d2 e H!breath!f3 A3 A2 A|d2 e ~f3 !breath!e zd{/d} e3 A2 A|
B2 A A2 A H!breath!d6|A2 E G2 F HE2 D H!breath!D3|D2 D{/E} F2 G ~A3 H!breath!F3|{/F} G2 F ~E2 D HD6|

